X: 1
T: Mother And Child, The
Z: Dr. Dow
S: https://thesession.org/tunes/1565#setting1565
R: reel
M: 4/4
L: 1/8
K: Dmaj
A2GE FD~D2|EFGD EFGE|A2GE FDDF|EFGE A2AB:|
|:cAAB cdeg|fdec dcAB|cAAB cdeg|1 fdec d2ed:|2 fdec d2ec||

